X:1
T:162 - Vigiar e Orar
T:Letra: Alfredo Henrique da Silva (1870-1950)
T:Música: Sophia Zuberbuehler (1833-1893)
T:De PSAUMES ET CANTIQUES
M:4/4
L:1/8
Q:1/4=100
K:C 
V:1
G AG| "C"c3E GG A3/G/| "Dm"G2 F2 zF dc| "G7"B2 A2 GA FG| "C"E4 zG AG| c2 c2 Bc dc| "D"B2 A2 zA "D7"dc| "G"B3G "D"^F2 "D7"A2| "G"G4z || E G3/A/| "C"G4 zE c3/d/| c6 BA| "G7"G2 d3z B2| "C"c4 z |]
w: 1.~Bem de ma-nhã, em-bo-rao céu se-re-no Pa-re-çaum di-a cal-moa-nun-ci-ar, Vi-giae o-ra; o co-ra-ção pe-que-no um tem-po-ral po-dea-bri-gar.     Bem de ma-nhã, e sem ces-sar,    Vi-gi-ar, sim, eo-rar!
w: 2.~Ao mei-o-di-a,e quan-doos sons da ter-ra A-ba-fam mais de Deus a voz dea-mor, Re-cor-reà o-ra-ção, e-vi-taa guer-ra E go-za paz com o Se-nhor.
w: 3.~Do di-aao fim, a-pós os teus li-da-res, Re-lem-braas bên-çãos do ce-les-tea-mor, E con-taa Deus pra-ze-res e pe-sa-res, Dei-xan-doem su-as mãos a dor.
w: 4.~E sem ces-sar, vi-gi-aa ca-dains-tan-te, Queo i-ni-mi-goa-ta-ca sem pa-rar; Só com Je-sus em co-mu-nhão cons-tan-te É queo fi-el vai tri-un-far.
W: 
W:
W: 1. Bem de manhã, embora o céu sereno
W: Pareça um dia calmo anunciar,
W: Vigia e ora; o coração pequeno
W: um temporal pode abrigar.
W: 
W:    (Estribilho)
W:    Bem de manhã, e sem cessar,
W:    Vigiar, sim, e orar!                 
W: 
W: 2. Ao meio-dia, e quando os sons da terra
W: Abafam mais de Deus a voz de amor,
W: Recorre à oração, evita a guerra
W: E goza paz com o Senhor.
W: 
W:
W:
W: 3. Do dia ao fim, após os teus lidares,
W: Relembra as bênçãos do celeste amor,
W: E conta a Deus prazeres e pesares,
W: Deixando em suas mãos a dor.
W: 
W: 4. E sem cessar, vigia a cada instante,
W: Que o inimigo ataca sem parar;
W: Só com Jesus em comunhão constante
W: É que o fiel vai triunfar.
W:         
W: 





